X: 16578
T: Hand Me Down The Tackle
R: reel
M: 4/4
K: Dmajor
dD (3DDD FD (3FGA|dfaf {a}gfec|dD (3DDD FAAF|(3Bcd AF EDB,D|
dD (3DDD FD (3FGA|dfaf {a}gfec|d2 (3edc dBAF|(3GGG EF GABc:|
d2fd Adfd|(3ddd fd BAFA|(3ddd fd Adfd|(3Bcd AF EDB,D|
d2fd Adfd|cdef g2fg|(3agf (3gfe fdec|(3dcB AF EDB,D|
d2fd Adfd|(3ddd fd BAFA|(3ddd fd Adfd|(3Bcd AF EDB,D|
(3agf ab agfa|g2 {a}(3gfg gage|faeg fdAF|(3GGG EF GABc||

